!!!COA:	Josquin des Prez
!!!CDT:	~1450-1521/08/27
!!!OPR:	Missa Rosina
!!!ONM:	4
!!!OTL:	Sanctus
!!!AGN:	Mass; Sanctus
!!!SCT:	NJE 9.4
!!!SCA:	New Josquin Edition 9.4
!!!voices:	4
!!!voices-OPR:	4
**kern
*staff1
*Ivox
*I"Tenor
*I'T
*>[A,B]
*>A
*clefGv2
*k[]
*M3/1
*met(O)
!!section: Sanctus and Pleni(?)
!!!OMD: Sanctus and Pleni(?)
=1-
1.E
2F/
1G
=2
1G
1A
1c
=3
0.B
=4
0A
1r
=5
1G
1.c
2d\
=6
0e
[1A
=7
2A/]
4G/
4F/
1E
1C
=8
1c
2B\
1A
2G/
=9
1F
0E
=10
*M2/1
*met(C|)
1.E
2F/
=11
1G
1G
=12
1A
1c
=13
0B
=14
0A
=15
1r
1G
=16
1.c
2d\
=17
0e
=18
1.A
4G/
4F/
=19
1E
1C
=20
1c
2B\
[2A/
=21
2A/]
2G/
1F
=22
0El
!!LO:LB:i:g=z
=23||
*>B
*clefGv2
*k[]
*M2/1
*met(C|)
!!section: Osanna and Benedictus(?)
!!!OMD: Osanna and Benedictus(?)
1c
2B\
[2A/
=24
2A/]
2G/
1F
=25
2E/
2A/
2G/
[2F/
=26
2F/]
1E
2D/
=27
1E
1F
=28
1E
2r
[2G/
=29
2G/]
2E/
2F/
2G/
=30
0El
==
*-
!!!RDF**kern: l=long note in original notation
!!!RDF**kern: V=start of tuplet marker
!!!RDF**kern: Z=end of tuplet marker
!!!ENC:	Jesse Rodin (May 2013
!!!END:	2013/05/10/
!!!EED:	Jesse Rodin
!!!EEV:	2013/05/13/
!!attribution-level@Jos: 4 (questionable)
!!!ONB:	Translated from MusicXML and edited on 2013/05/13/ by Craig Sapp
!!muse2ps: T^@{OPR}^u^@{ONM}{. }@{OTL}^C^@{COA}?\n@{SCT}^i2I250v150z21c120Q16
